X:1
T:6 Gedichte, Op.8
T:Gondellied
T:der Frau Emilie von Henning geb. Krutisch hochachtungsvoll zugeeignet
T:3. Gondellied
T:Johanna Kinkel
T:6 Gedichte, Op.8 
T:Emanuel Geibel
T:Creative Commons copyright waiver (CC0 1.0 Universal)
T:Creative Commons copyright waiver (CC0 1.0 Universal)
C:Johanna Kinkel (originally published under the name Johanna Mathieux)
Z:Emanuel Geibel
Z:Creative Commons copyright waiver (CC0 1.0 Universal)
%%score 1 { 2 | ( 3 4 ) }
L:1/8
Q:1/4=100
M:6/8
K:G
V:1 treble nm="Singstimme\nVoice"
V:2 treble nm="Pianoforte"
V:3 bass 
V:4 bass 
V:1
"^Andante con moto"!mp! D | B2 A G2 B | d2 c B3 | d G A (B>A) G | A3 z2!p! A | B2 A ^G2 B | %6
w: O|komm zu mir, wenn|durch die Nacht|wan- delt das Ster- * nen-|heer, dann|schwebt mit uns in|
w: Das|ist für Lie- ben-|de die Stund’,|Lieb- chen wie ich _ und|du, so|fried- lich blaut des|
!<(! e2 d cB A!<)! |"^un poco ritard."!mp![Q:1/4=98] G2 E[Q:1/4=94] (DB) A | %8
w: Mon- des- pracht * die|Gon- del ü- * ber's|
w: Him- mels Rund, * es|schläft das Meer _ in|
[Q:1/4=98] G3 z2"^a tempo"[Q:1/4=100]!mf! B | (B>^c) B/c/ B2 c | d>e d/e/ d2 d | %11
w: Meer. Die|Lieb’ * er- * wacht, der|Scherz * be- * ginnt im|
w: Ruh. Die|Mäd- * chen * sin- gen|Lie- * bes- * lust, das|
 (^c>d) c/d/ e2 d/c/ |"^probably need \nC sharp for B minor\nV\nV\n"{d!courtesy!^c} B3 z2 B | %13
w: gold’ * nen * Zau- ber- *|licht. Die|
w: E- * cho * hallt von *|fern, da|
!<(! B>^c B/c/ B2 c | d>e d/e/ d2 d/e/ |[Q:1/4=98] f2 d!<)!"^molto rall."[Q:1/4=92]!f! f2 e | %16
w: Zi- * ther * lockt so|sanft, * so * lind, du *|wi- der- stehst ihr|
w: drängt * sich * klop- fend|Brust * an * Brust, Schliesst *|Mund an Mund sich|
[Q:1/4=84]!>(! (!>!_e3!>)! d^c)"^a tempo"!mf! =c |[Q:1/4=100] B2 A G2 B | d2 c B3 | d G A B>A G | %20
w: nicht. * * O|komm zu mir wenn|durch die Nacht|wan- delt das Ster- * nen-|
w: gern. _ _ O|komm zu mir, wenn|durch die Nacht|wan- delt das Ster- * nen-|
 A3 z2 A | B2 A ^G2 B | e2 d cB A |"^un poco rit."[Q:1/4=98] G2 E[Q:1/4=94] (DB) A | %24
w: heer, dann|schwebt mit uns in|Mon- des- pracht * die|Gon- del ü- * ber's|
w: heer, dann|schwebt mit uns in|Mon- des- pracht * die|Gon- del ü- * ber's|
 G3 z2 z[Q:1/4=100] | z6 | z6 |[Q:1/4=96] z6[Q:1/4=88] |[Q:1/4=72] z4 z :| %29
w: Meer.|||||
w: Meer.|||||
V:2
 z |!p! G/A/G/D/B,/D/ G/A/G/D/B,/D/ | F/G/F/D/A,/F/ G/A/G/D/B,/D/ | G/A/G/D/B,/D/ G/A/G/D/B,/D/ | %4
 F/G/F/D/A,/D/ F/G/F/D/A,/F/ | =F/^G/F/D/B,/F/ E/G/E/D/E/G/ | A/B/A/E/C/E/ A/B/A/E/C/E/ | %7
 G/A/G/E/A,/E/ F/G/F/D/=C/D/ |!<(! G/A/G/D/B,/D/ F/G/F/^D/B,/D/!<)! | %9
!mp! E/F/E/B,/^G,/B,/ E/F/E/B,/G,/B,/ | D/E/D/B,/F,/B,/ D/E/D/B,/F,/B,/ | %11
 ^C/E/C/B,/G,/B,/ C/E/C/^A,/F,/A,/ | B,/D/F/D/B,/D/ B,/^D/F/D/B,/D/ | %13
 E/F/E/B,/^G,/B,/!<(! E/F/E/B,/G,/B,/ | D/E/D/B,/F,/B,/!<)! D/E/D/B,/F,/B,/ | %15
 D/^G/B/G/d"_molto rall." ^C/=G/A/G/^c |!>(! =C/^F/A/F/=c C/F/A/F/!>)!c | %17
"_a tempo"!mp! G/A/G/D/B,/D/ G/A/G/D/B,/D/ | F/G/F/D/A,/D/ G/A/G/D/B,/D/ | %19
 G/A/G/D/B,/D/ G/A/G/D/B,/D/ | F/G/F/D/A,/D/ F/G/F/D/A,/D/ | =F/^G/F/D/B,/D/ E/G/E/D/E/G/ | %22
 A/B/A/E/C/E/ A/B/A/E/C/E/ |"_un poco rit." G/A/G/E/A,/E/!>(! F/G/F/D/C/D/!>)! | %24
"_a tempo" G/A/G/D/!<(!B,/D/ G/A/G/A/B/c/!<)! |!mf! d>ed/e/ f>ga/b/ | %26
 g>ag/a/"_cresc." b>c'd'/^d'/ | %27
!f! !>![ee']>"_molto rall."[_e_e'][dd']/[_d_d']/ !>![cc']>"_dim."[Bb][_B_b]/[Aa]/ | %28
"_calando" !>![Gg]>dB/A/!p! G2 :| %29
V:3
 z |!mp! ([G,,D,]G,).[G,,D,] ([G,,D,]G,).[G,,D,] | (D,,D,).D,, ([G,,D,]G,).[G,,D,] | %3
 ([G,,D,]G,).[G,,D,] ([G,,D,]G,).[G,,D,] | (D,,D,).D,, (D,,D,).D,, | (D,B,).D, (E,B,).E, | %6
 (C,E,).A, A,,E,A, |"^un poco ritard." [^C,,^C,]3 [D,,D,]3 | [G,,D,B,] z z!sfz! (([B,,A,]3 | %9
 [E,^G,])) z z [E,,E,]3 | [B,,,B,,]3 [B,,,B,,]3 | [E,,E,]3 [F,,F,]3 | [B,,F,]3 ((!>![B,,F,A,]3 | %13
 [E,^G,])) z z [E,,E,]3 | [B,,,B,,]3 [B,,,B,,]3 | B,, !>!E,2 A, !>!A,,2 | [D,,D,]6 | %17
 G,,/D,/B,/D,/G,/D,/ G,,/D,/B,/D,/G,/D,/ | D,,/D,/A,/D,/F,/D,/ G,,/D,/B,/D,/G,/D,/ | %19
 G,,/D,/B,/D,/G,/D,/ G,,/D,/B,/D,/G,/D,/ | D,,/D,/A,/D,/F,/D,/ D,,/D,/A,/D,/F,/D,/ | %21
 D,,/B,,/D,/B,,/D,,/B,,/ E,,/B,,/E,/B,,/E,,/B,,/ | C,/E,/C/E,/A,/E,/ C,/E,/C/E,/A,/E,/ | %23
 ^C,/A,/C,/A,/C, D,/A,/D,/A,/D, | G,,/D,/B,/D,/G,,/D,/ B, z z | D,/A,/C/F/C/A,/ D,/A,/C/F/C/A,/ | %26
 G,/B,/=F/G/F/B,/ G,/B,/F/G/F/B,/ | C,/G,/C/G,/E D,/A,/C/A,/F | %28
 G,,/D,/B,/D,/G,/D,/ !arpeggio![G,,D,B,]2 :| %29
V:4
 x | x6 | x6 | x6 | x6 | x6 | x6 | x6 | x3 ^D,2"^a tempo" F, | x6 | x6 | x6 | x6 | x6 | x6 | x6 | %16
 x6 | x6 | x6 | x6 | x6 | x6 | x6 | x6 | x6 | x6 | x6 | x6 | x5 :| %29

